X: 293-a
T: Dusty Miller
C: Traditional; Bill Monroe solo, from concert at The Gaslight 1966
Z: TablEdited by John Strong for MandoZine 
S: MandoZine TablEdit Archives 
L: 1/8
Q: 552
M: 4/4
K: A
 "[1:A]""A"=G,"A"A, A,=C A,A, DD | ED ED "G"=GE D=C | "A"A,=C EE E=G =GA | "E"AB =cB "A"=cB A2 |
 A,A, =CA, A,A, A,D | ED ED "G"=GE D=C | "A"A,=C EE E=G =GA | "E"AB =cB =cB A2 |
 "A"=G,A, A,=C A,A, DD | ED ED "G"=GE D=C | "A"A,=C EE E=G =GA | "E"AB =cB "A"=cB A2 | 
"[1:B]""A"aa aa aa c'c' | ae ee "E"ef aa | "A"ea aa aa af | "E"ed c[eA] "A"[eB][eA] [eA]e |
 ea aa aa ae | [ec]e ef "E"=gf =g=g | "A"b=g a=g =ga =gf | "E"ef ed "A"c[eA] [e2A2] |
 ea aa aa ae | [ec]e ef "E"=gf =gf | "A"e[ec] [ec]e af af | "E"ef ed "A"[ec][eA] [e2A2] |
 [fA]a aa aa ae | [ec]e ef "E"=gf =gf | "A"bf ae =gf =gf | "E"ef ed "A"[ec][eA] [e2A2] |

 "[2:A]""A" A,=C "A"[AD]D A,=C D=G | A,=C EE "G"=GE D=G, | A,=C ED A,=C EE | "E"[A=G][eA] [eA]B "A"=cB A2 |
 A,=C ED A,=C [AD]D | ED ED "G"=GE D=C | "A"A,=C EE E=G [A=G]A | "E"AB =cB "A"=cB [e2A2] |
 [ADA,][D=C] [DA,][D=C] [DA,][D=C] [AE][AE] | EE E=G "G"=GE D=C | "A"A,=C [AE][AE] [AE]=G [A=G]A | "E"AB =cB "A"=cB A2 |
 A,=C A,[EA,] A,=C [AD][AD] | ED E=G "G"=GE D=C | "A"A,=C =CE E=G =GA | "E"AB =cB "A"BA A2 | 
"[2:B]""A" aa "A"aa aa ac' | ae ee "E"eg ag | "A"ga aa aa ae | "E"ee [ed][ec] "A"[ed][ec] ee |
 ea aa aa ac' | ae ee "E"ea ac' | "A"ae =ge [eA][eA] d[eA] | "E"[ec][eA] [eA][ec] "A"[ec][eA] [eA]e |
 eg ab aa aa | ac' ae "E"ee ee | "A"ga ga aa ae | "E"e[ed] [ed][eA] "A"[ec][eA] [eA]e |
 ea ac' aa aa | "(Split-string lick on E Strings 58-59)" ac' [=c'e]e "E"[=c'e]e [=c'e][=c'g] |
 "A"[=c'a][=c'a] [=c'a][^c'a] [=c'a]=c' =c'=c' | "E"ed dc "A"cA A2 |

 "[3:B]""A" fa aa aa ae | [ec]e ef "E"=gf =gf | "A"e[ec] [ec]f ae af |
 "E"ef ed "A"c[eA] [eA][eA] | ea aa aa ae | ce ef "E"=gf =g=g | "A"b=g a=g =g=g a=g | "E"ef ed "A"c[eA] [eA][eA] |
 ea aa aa ae | [ec]e ef "E"=gf =gf | "A"e[ec] [ec]e af af | "E"ef ed "A"c[eA] [eA]a |
 aa e[eAD] =ga [eA][eA] | =ge fe "E"=ge =ge | "A"af =ge ed d[eA] | "E"cA Ac "A"cA A2 |
 
"[4:A]""A" =G,A, A,=C A,A, A,A, | A,=C =CE "G"E=G =G[A=G] | "A"=G,A, A,=C ED D[AD] | "E"[AD]A AB "A"=cB A[AD] |
 [D=G,]A, A,=C A,A, A,[ADA,] | ED ED "G"=GE D=C | "A"A,=C =CE E=G =GA | "E"AB =cB "A"=cB A2 |
 A,G, A,D =CB, =CD | ED ED "G"=GF =GD | "A"A,G, A,=G, =C=C DA | "E"AB =cB "A"=cB A2 |
 A,G, A,=G, =CB, =CD | ED ED "G"=GF =G[AD] | "A"A,G, A,D [A=F]=G AA | "E"AB =cB "A"[eB][eA] [e2A2] |
 "Ending"ag af ef e=c | [eA][A=G] [A=G][eA] [eA]e ea | ac' ae [ee][ed] [ed][ed] | [ec][eA] [e2A2] [e4A4] |

% ----------------------------------------------------------------------------------------------------------

